X: 11
T: Trip to Paris. WCl.13
O: William Clarke, Lincoln, England 1770
M: 2/4
L: 1/16
%Q: 100
S: William Clarke MS,Lincoln,1770.
R: reel
%O: Lincoln
A: England
N: ? bar 4 should be as bar 8, but missingAcFA in MS..I have presumed it
N: for PlayQabc...CGP...
Z: vmp.Barry Callaghan
K: G
|:\
G2Bd cAFD | GBdg (d2cB) | ceAc BdGB | AcFA G2G,2 ::\
gbeg fadf | egce d2d2 | ceAc BdGd | AcFA G2G,2 :|
N: NB. AcFA missing in MS in bar 4

%%sep 1 1 500
